src/lib/packages/icons/src/assets/line/home-roof-heart.svg

<svg width="24" height="24" viewBox="0 0 24 24" fill="none" xmlns="http://www.w3.org/2000/svg">
<path d="M21.477 9.08502L14.0649 2.98907C12.8679 2.00707 11.133 2.00607 9.93598 2.98907L2.52399 9.08404C2.20499 9.34704 2.15796 9.81907 2.42096 10.1401C2.68396 10.4611 3.15699 10.5051 3.47699 10.2431L4.24994 9.60711V18.0001C4.24994 20.4181 5.58194 21.7501 7.99994 21.7501H15.9999C18.4179 21.7501 19.7499 20.4181 19.7499 18.0001V9.60711L20.5229 10.2431C20.6629 10.3581 20.8319 10.414 20.9999 10.414C21.2159 10.414 21.4309 10.321 21.5789 10.141C21.8429 9.82005 21.796 9.34802 21.477 9.08502ZM18.2499 18.0001C18.2499 19.5771 17.5769 20.2501 15.9999 20.2501H7.99994C6.42294 20.2501 5.74994 19.5771 5.74994 18.0001V8.37408L10.889 4.14911C11.532 3.62011 12.469 3.62011 13.112 4.14911L18.2509 8.37506V18.0001H18.2499ZM10.228 9.75006C9.30497 9.75406 8.53096 10.106 7.98896 10.768C7.33796 11.563 7.10091 12.7181 7.33991 13.9371C7.92891 16.9511 11.5389 18.6142 11.6929 18.6832C11.7909 18.7272 11.8959 18.7491 12.0019 18.7491C12.1079 18.7491 12.213 18.7272 12.311 18.6832C12.464 18.6142 16.0749 16.9511 16.6639 13.9371C16.9019 12.7161 16.665 11.561 16.015 10.767C15.473 10.106 14.699 9.75406 13.775 9.75006C13.77 9.75006 13.7649 9.75006 13.7609 9.75006C12.9919 9.75006 12.413 10.067 12.003 10.466C11.588 10.064 11.024 9.71206 10.228 9.75006ZM12.7089 12.064C12.7379 11.981 13.022 11.2501 13.759 11.2501C13.761 11.2501 13.762 11.2501 13.764 11.2501C14.234 11.2521 14.599 11.4101 14.852 11.7181C15.213 12.1591 15.3389 12.881 15.1889 13.65C14.8339 15.468 12.7889 16.733 12.0009 17.16C11.2129 16.734 9.16793 15.469 8.81293 13.65C8.66293 12.882 8.78897 12.1601 9.14997 11.7191C9.40297 11.4111 9.769 11.253 10.237 11.251C10.239 11.251 10.2399 11.251 10.2419 11.251C10.9789 11.251 11.263 11.9812 11.291 12.0582C11.393 12.3612 11.6759 12.562 11.9949 12.566C11.9979 12.566 12.001 12.566 12.003 12.566C12.317 12.564 12.6019 12.362 12.7089 12.064Z" fill="currentColor"/>
</svg>

<svg xmlns="http://www.w3.org/2000/svg" width="24" height="24" fill="none"><path fill="currentColor" d="m21.477 9.085-7.412-6.096a3.26 3.26 0 0 0-4.129 0L2.524 9.084a.751.751 0 0 0 .953 1.16l.773-.637V18c0 2.418 1.332 3.75 3.75 3.75h8c2.418 0 3.75-1.332 3.75-3.75V9.607l.773.636a.749.749 0 0 0 1.056-.102.75.75 0 0 0-.102-1.056ZM18.25 18c0 1.577-.673 2.25-2.25 2.25H8c-1.577 0-2.25-.673-2.25-2.25V8.374l5.139-4.225a1.755 1.755 0 0 1 2.223 0l5.139 4.226V18h-.001Zm-8.022-8.25c-.923.004-1.697.356-2.239 1.018-.651.795-.888 1.95-.65 3.17.59 3.013 4.2 4.676 4.354 4.745a.753.753 0 0 0 .618 0c.153-.069 3.764-1.732 4.353-4.746.238-1.22.001-2.376-.649-3.17-.542-.661-1.316-1.013-2.24-1.017h-.014a2.46 2.46 0 0 0-1.758.716c-.415-.402-.979-.754-1.775-.716Zm2.48 2.314c.03-.083.314-.814 1.051-.814h.005c.47.002.835.16 1.088.468.361.441.487 1.163.337 1.932-.355 1.818-2.4 3.083-3.188 3.51-.788-.426-2.833-1.691-3.188-3.51-.15-.768-.024-1.49.337-1.93.253-.309.619-.467 1.087-.469h.005c.737 0 1.021.73 1.049.807a.749.749 0 0 0 .704.508h.008a.76.76 0 0 0 .706-.502Z"/></svg>
